;FLAVOR:Marlin
;TIME:277
;Filament used: 0.137907m
;Layer height: 0.1
;MINX:105.803
;MINY:101.303
;MINZ:0.2
;MAXX:126.197
;MAXY:120.697
;MAXZ:3.6
;TARGET_MACHINE.NAME:Unknown
;Generated with Cura_SteamEngine 5.6.0
M140 S70
M105
M190 S70
M104 S230
M105
M109 S230
M82 ;absolute extrusion mode
G28 ;Home
G1 Z15.0 F6000 ;Move the platform down 15mm
;Prime the extruder
G92 E0
G1 F200 E3
G92 E0
G92 E0
q
G92 E0
G1 F1500 E-6.5
;LAYER_COUNT:35
;LAYER:0
M107
G0 F3600 X107.338 Y103.562 Z0.2
;TYPE:SKIRT
G1 F1500 E0
G1 F1800 X107.99 Y102.897 E0.03098
G1 X108.538 Y102.467 E0.05414
G1 X109.431 Y101.924 E0.0889
G1 X110.408 Y101.574 E0.12342
G1 X111.368 Y101.375 E0.15603
G1 X112.029 Y101.312 E0.17811
G1 X112.628 Y101.303 E0.19804
G1 X119.236 Y101.303 E0.41782
G1 X120.197 Y101.324 E0.44979
G1 X121.322 Y101.473 E0.48754
G1 X122.295 Y101.818 E0.52187
G1 X123.101 Y102.221 E0.55185
G1 X123.967 Y102.846 E0.58737
G1 X124.572 Y103.455 E0.61592
G1 X125.049 Y104.062 E0.6416
G1 X125.569 Y104.944 E0.67565
G1 X125.917 Y105.807 E0.7066
G1 X126.12 Y106.847 E0.74184
G1 X126.188 Y107.53 E0.76467
G1 X126.197 Y108.128 E0.78456
G1 X126.197 Y113.736 E0.97109
G1 X126.187 Y114.466 E0.99537
G1 X126.109 Y115.285 E1.02273
G1 X125.938 Y116.062 E1.04919
G1 X125.711 Y116.723 E1.07244
G1 X125.383 Y117.424 E1.09818
G1 X124.696 Y118.421 E1.13845
G1 X123.999 Y119.111 E1.17107
G1 X123.321 Y119.629 E1.19945
G1 X122.571 Y120.076 E1.22849
G1 X121.535 Y120.441 E1.26502
G1 X120.632 Y120.625 E1.29567
G1 X119.971 Y120.688 E1.31776
G1 X119.354 Y120.697 E1.33828
G1 X112.704 Y120.696 E1.55946
G1 X111.759 Y120.673 E1.5909
G1 X110.678 Y120.53 E1.62717
G1 X109.695 Y120.178 E1.6619
G1 X108.966 Y119.814 E1.689
G1 X108.366 Y119.403 E1.71319
G1 X107.603 Y118.734 E1.74694
G1 X107.067 Y118.114 E1.7742
G1 X106.415 Y117.023 E1.81647
G1 X106.075 Y116.131 E1.84822
G1 X105.878 Y115.141 E1.88179
G1 X105.812 Y114.467 E1.90432
G1 X105.803 Y113.854 E1.92471
G1 X105.804 Y108.175 E2.11359
G1 X105.819 Y107.432 E2.13831
G1 X105.891 Y106.711 E2.16241
G1 X106.115 Y105.75 E2.19523
G1 X106.35 Y105.112 E2.21784
G1 X106.754 Y104.367 E2.24603
G1 X107.338 Y103.562 E2.27911
G0 F3600 X107.624 Y103.841
G1 F1800 X108.237 Y103.212 E2.30832
G1 X108.785 Y102.782 E2.33149
G1 X109.601 Y102.288 E2.36322
G1 X110.543 Y101.951 E2.39649
G1 X111.448 Y101.767 E2.42721
G1 X112.035 Y101.712 E2.44682
G1 X112.634 Y101.703 E2.46674
G1 X119.227 Y101.703 E2.68603
G1 X120.188 Y101.724 E2.718
G1 X121.227 Y101.863 E2.75286
G1 X122.118 Y102.177 E2.78428
G1 X122.869 Y102.547 E2.81213
G1 X123.684 Y103.129 E2.84544
G1 X124.257 Y103.702 E2.87239
G1 X124.734 Y104.309 E2.89807
G1 X125.198 Y105.094 E2.9284
G1 X125.533 Y105.925 E2.9582
G1 X125.722 Y106.887 E2.9908
G1 X125.788 Y107.536 E3.0125
G1 X125.797 Y108.134 E3.03239
G1 X125.797 Y113.731 E3.21855
G1 X125.787 Y114.461 E3.24283
G1 X125.718 Y115.199 E3.26749
G1 X125.547 Y115.976 E3.29395
G1 X125.349 Y116.553 E3.31424
G1 X125.021 Y117.254 E3.33998
G1 X124.389 Y118.163 E3.3768
G1 X123.756 Y118.794 E3.40653
G1 X123.116 Y119.285 E3.43336
G1 X122.399 Y119.712 E3.46111
G1 X121.455 Y120.049 E3.49445
G1 X120.552 Y120.233 E3.5251
G1 X119.965 Y120.288 E3.54471
G1 X119.354 Y120.297 E3.56504
G1 X112.713 Y120.296 E3.78592
G1 X111.812 Y120.276 E3.81589
G1 X110.771 Y120.138 E3.85082
G1 X109.872 Y119.819 E3.88255
G1 X109.191 Y119.483 E3.9078
G1 X108.629 Y119.101 E3.9304
G1 X107.906 Y118.472 E3.96228
G1 X107.37 Y117.852 E3.98954
G1 X106.788 Y116.878 E4.02727
G1 X106.467 Y116.052 E4.05675
G1 X106.276 Y115.101 E4.08901
G1 X106.212 Y114.461 E4.1104
G1 X106.203 Y113.854 E4.1306
G1 X106.204 Y108.183 E4.31921
G1 X106.219 Y107.44 E4.34393
G1 X106.281 Y106.802 E4.36525
G1 X106.505 Y105.841 E4.39807
G1 X106.725 Y105.252 E4.41898
G1 X107.105 Y104.559 E4.44527
G1 X107.624 Y103.841 E4.47474
G0 F3600 X107.912 Y104.119
G1 F1800 X108.484 Y103.527 E4.50212
G1 X109.032 Y103.097 E4.52528
G1 X109.772 Y102.652 E4.554
G1 X110.678 Y102.328 E4.58601
G1 X111.486 Y102.165 E4.61342
G1 X112.041 Y102.112 E4.63196
G1 X112.64 Y102.103 E4.65189
G1 X119.218 Y102.103 E4.87068
G1 X120.179 Y102.124 E4.90265
G1 X121.13 Y102.253 E4.93457
G1 X121.943 Y102.537 E4.96321
G1 X122.638 Y102.874 E4.9889
G1 X123.402 Y103.413 E5.02
G1 X123.942 Y103.949 E5.0453
G1 X124.419 Y104.556 E5.07098
G1 X124.827 Y105.243 E5.09755
G1 X125.148 Y106.04 E5.12613
G1 X125.324 Y106.928 E5.15624
G1 X125.388 Y107.542 E5.17677
G1 X125.397 Y108.14 E5.19667
G1 X125.397 Y113.726 E5.38246
G1 X125.387 Y114.456 E5.40674
G1 X125.327 Y115.113 E5.42868
G1 X125.156 Y115.89 E5.45514
G1 X124.985 Y116.386 E5.47259
G1 X124.691 Y117.028 E5.49608
G1 X124.105 Y117.881 E5.5305
G1 X123.512 Y118.477 E5.55846
G1 X122.911 Y118.941 E5.58372
G1 X122.226 Y119.349 E5.61024
G1 X121.321 Y119.672 E5.6422
G1 X120.514 Y119.835 E5.66958
G1 X119.959 Y119.888 E5.68812
G1 X119.354 Y119.897 E5.70825
G1 X112.722 Y119.896 E5.92883
G1 X111.821 Y119.876 E5.9588
G1 X110.866 Y119.747 E5.99085
G1 X110.047 Y119.459 E6.01973
G1 X109.414 Y119.151 E6.04314
G1 X108.89 Y118.798 E6.06416
G1 X108.209 Y118.21 E6.09408
G1 X107.673 Y117.59 E6.12134
G1 X107.16 Y116.731 E6.15462
G1 X106.859 Y115.972 E6.18178
G1 X106.674 Y115.06 E6.21273
G1 X106.612 Y114.455 E6.23295
G1 X106.603 Y113.854 E6.25295
G1 X106.604 Y108.19 E6.44133
G1 X106.617 Y107.479 E6.46498
G1 X106.679 Y106.841 E6.4863
G1 X106.881 Y105.978 E6.51578
G1 X107.076 Y105.444 E6.53469
G1 X107.456 Y104.751 E6.56098
G1 X107.912 Y104.119 E6.5869
G0 F3600 X108.731 Y103.842
G1 F1800 X109.279 Y103.412 E6.61007
G1 X109.94 Y103.017 E6.63568
G1 X110.813 Y102.705 E6.66651
G1 X111.525 Y102.563 E6.69066
G1 X112.047 Y102.512 E6.7081
G1 X112.646 Y102.503 E6.72803
G1 X119.211 Y102.503 E6.94638
G1 X120.125 Y102.52 E6.97679
G1 X121.034 Y102.643 E7.0073
G1 X121.771 Y102.898 E7.03324
G1 X122.409 Y103.202 E7.05674
G1 X123.12 Y103.697 E7.08556
G1 X123.66 Y104.233 E7.11086
G1 X124.076 Y104.762 E7.13324
G1 X124.456 Y105.393 E7.15774
G1 X124.764 Y106.157 E7.18514
G1 X124.926 Y106.971 E7.21275
G1 X124.988 Y107.548 E7.23205
G1 X124.997 Y108.146 E7.25194
G1 X124.997 Y113.721 E7.43737
G1 X124.987 Y114.451 E7.46165
G1 X124.936 Y115.028 E7.48091
G1 X124.777 Y115.761 E7.50586
G1 X124.621 Y116.219 E7.52195
G1 X124.327 Y116.861 E7.54544
G1 X123.82 Y117.6 E7.57525
G1 X123.266 Y118.161 E7.60147
G1 X122.706 Y118.597 E7.62507
G1 X122.053 Y118.986 E7.65036
G1 X121.187 Y119.295 E7.68094
G1 X120.475 Y119.437 E7.70508
G1 X119.953 Y119.488 E7.72253
G1 X119.354 Y119.497 E7.74245
G1 X112.729 Y119.496 E7.9628
G1 X111.875 Y119.48 E7.99121
G1 X110.964 Y119.357 E8.02179
G1 X110.22 Y119.098 E8.04799
G1 X109.636 Y118.818 E8.06953
G1 X109.15 Y118.494 E8.08896
G1 X108.512 Y117.948 E8.11689
G1 X107.976 Y117.328 E8.14415
G1 X107.532 Y116.584 E8.17296
G1 X107.231 Y115.825 E8.20012
G1 X107.072 Y115.018 E8.22748
G1 X107.012 Y114.449 E8.24651
G1 X107.003 Y113.854 E8.2663
G1 X107.004 Y108.197 E8.45445
G1 X107.017 Y107.486 E8.4781
G1 X107.069 Y106.931 E8.49664
G1 X107.258 Y106.112 E8.5246
G1 X107.427 Y105.635 E8.54143
G1 X107.782 Y104.983 E8.56612
G1 X108.201 Y104.396 E8.59011
G1 X108.731 Y103.842 E8.61561
G1 F1500 E2.11561
;MESH:cap.stl
G0 F3600 X110.448 Y105.703
G0 X111.21 Y106.473
G0 X119.824 Y115.398
G0 X119.854 Y115.696
;TYPE:WALL-INNER
G1 F1500 E8.61561
G1 F1800 X120.248 Y115.618 E8.62897
G1 X120.675 Y115.384 E8.64516
G1 X120.879 Y115.182 E8.65471
G1 X121.115 Y114.758 E8.67085
G1 X121.196 Y114.357 E8.68446
G1 X121.197 Y107.645 E8.9077
G1 X121.119 Y107.252 E8.92103
G1 X120.884 Y106.825 E8.93724
G1 X120.682 Y106.621 E8.94679
G1 X120.257 Y106.385 E8.96295
G1 X119.858 Y106.303 E8.9765
G1 X112.146 Y106.303 E9.23301
G1 X111.752 Y106.381 E9.24636
G1 X111.325 Y106.616 E9.26257
G1 X111.121 Y106.818 E9.27212
G1 X110.885 Y107.243 E9.28829
G1 X110.803 Y107.642 E9.30184
G1 X110.804 Y114.353 E9.52505
G1 X110.882 Y114.749 E9.53847
G1 X111.116 Y115.175 E9.55464
G1 X111.318 Y115.379 E9.56419
G1 X111.742 Y115.615 E9.58033
G1 X112.142 Y115.696 E9.5939
G1 X119.854 Y115.696 E9.8504
G0 F3600 X119.893 Y116.096
;TYPE:WALL-OUTER
G1 F1800 X120.386 Y115.999 E9.86712
G1 X120.917 Y115.708 E9.88725
G1 X121.201 Y115.426 E9.90057
G1 X121.495 Y114.898 E9.92067
G1 X121.596 Y114.397 E9.93766
G1 X121.597 Y107.606 E10.16353
G1 X121.499 Y107.114 E10.18022
G1 X121.208 Y106.583 E10.20036
G1 X120.926 Y106.299 E10.21367
G1 X120.398 Y106.005 E10.23377
G1 X119.898 Y105.903 E10.25074
G1 X112.107 Y105.903 E10.50987
G1 X111.614 Y106.001 E10.52659
G1 X111.083 Y106.292 E10.54673
G1 X110.799 Y106.574 E10.56004
G1 X110.505 Y107.102 E10.58014
G1 X110.403 Y107.602 E10.59711
G1 X110.404 Y114.392 E10.82295
G1 X110.501 Y114.887 E10.83973
G1 X110.792 Y115.417 E10.85984
G1 X111.074 Y115.701 E10.87315
G1 X111.602 Y115.995 E10.89325
G1 X112.102 Y116.096 E10.91022
G1 X119.893 Y116.096 E11.16935
G0 F3600 X120.089 Y116.058
G0 X119.817 Y115.316
;TYPE:SKIN
G1 F1800 X112.18 Y115.315 E11.42335
G1 X111.874 Y115.253 E11.43374
G1 X111.554 Y115.074 E11.44593
G1 X111.421 Y114.941 E11.45219
G1 X111.244 Y114.619 E11.46441
G1 X111.185 Y114.315 E11.47471
G1 X111.183 Y107.679 E11.69542
G1 X111.246 Y107.375 E11.70575
G1 X111.426 Y107.053 E11.71802
G1 X111.559 Y106.921 E11.72425
G1 X111.883 Y106.743 E11.73655
G1 X112.183 Y106.683 E11.74672
G1 X119.82 Y106.684 E12.00073
G1 X120.125 Y106.747 E12.01109
G1 X120.446 Y106.926 E12.02331
G1 X120.579 Y107.06 E12.02959
G1 X120.757 Y107.381 E12.0418
G1 X120.816 Y107.682 E12.052
G1 X120.815 Y114.319 E12.27275
G1 X120.754 Y114.623 E12.28306
G1 X120.574 Y114.946 E12.29536
G1 X120.441 Y115.078 E12.30159
G1 X120.118 Y115.256 E12.31386
G1 X119.817 Y115.316 E12.32407
G0 F3600 X112.285 Y115.114
G1 F1800 X111.384 Y114.212 E12.36647
G0 F3600 X111.384 Y113.646
G1 F1800 X112.851 Y115.114 E12.4355
G0 F3600 X113.417 Y115.114
G1 F1800 X111.384 Y113.081 E12.53113
G0 F3600 X111.383 Y112.514
G1 F1800 X113.982 Y115.114 E12.6534
G0 F3600 X114.548 Y115.114
G1 F1800 X111.383 Y111.949 E12.80227
G0 F3600 X111.383 Y111.383
G1 F1800 X115.114 Y115.114 E12.97776
G0 F3600 X115.68 Y115.114
G1 F1800 X111.382 Y110.817 E13.17991
G0 F3600 X111.382 Y110.251
G1 F1800 X116.246 Y115.114 E13.40867
G0 F3600 X116.811 Y115.114
G1 F1800 X111.382 Y109.685 E13.66403
G0 F3600 X111.382 Y109.119
G1 F1800 X117.378 Y115.115 E13.94607
G0 F3600 X117.943 Y115.115
G1 F1800 X111.382 Y108.553 E14.2547
G0 F3600 X111.382 Y107.987
G1 F1800 X118.509 Y115.115 E14.58996
G0 F3600 X119.075 Y115.115
G1 F1800 X111.429 Y107.469 E14.9496
G0 F3600 X111.655 Y107.13
G1 F1800 X119.641 Y115.115 E15.32521
G0 F3600 X120.113 Y115.022
G1 F1800 X112.012 Y106.921 E15.70626
G0 F3600 X112.54 Y106.884
G1 F1800 X120.437 Y114.78 E16.07769
G0 F3600 X120.599 Y114.376
G1 F1800 X113.106 Y106.884 E16.43011
G0 F3600 X113.672 Y106.884
G1 F1800 X120.615 Y113.827 E16.75669
G0 F3600 X120.615 Y113.261
G1 F1800 X114.238 Y106.884 E17.05664
G0 F3600 X114.803 Y106.884
G1 F1800 X120.615 Y112.695 E17.33
G0 F3600 X120.615 Y112.13
G1 F1800 X115.369 Y106.884 E17.57675
G0 F3600 X115.935 Y106.884
G1 F1800 X120.615 Y111.564 E17.79689
G0 F3600 X120.615 Y110.998
G1 F1800 X116.5 Y106.884 E17.99042
G0 F3600 X117.066 Y106.884
G1 F1800 X120.615 Y110.433 E18.15735
G0 F3600 X120.615 Y109.867
G1 F1800 X117.632 Y106.884 E18.29767
G0 F3600 X118.197 Y106.884
G1 F1800 X120.615 Y109.301 E18.41138
G0 F3600 X120.615 Y108.736
G1 F1800 X118.763 Y106.884 E18.49849
G0 F3600 X119.329 Y106.884
G1 F1800 X120.615 Y108.17 E18.55898
G0 F3600 X120.592 Y107.581
G1 F1800 X119.92 Y106.909 E18.59059
G1 X119.85 Y106.839
G0 F3600 X119.835 Y106.911
G1 F1500 E12.09059
;MESH:NONMESH
G0 F600 X119.835 Y106.911 Z0.3
G0 F3600 X112.125 Y106.122
G0 X111.915 Y105.06
G0 X108.731 Y103.842
;TIME_ELAPSED:25.177063
;LAYER:1
M106 S255
;TYPE:SKIRT
G1 F1500 E18.59059
G1 F1800 X109.279 Y103.412 E18.60217
G1 X109.94 Y103.017 E18.61498
G1 X110.813 Y102.705 E18.63039
G1 X111.525 Y102.563 E18.64247
G1 X112.047 Y102.512 E18.65119
G1 X112.646 Y102.503 E18.66115
G1 X119.211 Y102.503 E18.77033
G1 X120.125 Y102.52 E18.78553
G1 X121.034 Y102.643 E18.80079
G1 X121.771 Y102.898 E18.81376
G1 X122.409 Y103.202 E18.82551
G1 X123.12 Y103.697 E18.83992
G1 X123.66 Y104.233 E18.85257
G1 X124.076 Y104.762 E18.86376
G1 X124.456 Y105.393 E18.87601
G1 X124.764 Y106.157 E18.88971
G1 X124.926 Y106.971 E18.90351
G1 X124.988 Y107.548 E18.91316
G1 X124.997 Y108.146 E18.92311
G1 X124.997 Y113.721 E19.01582
G1 X124.987 Y114.451 E19.02796
G1 X124.936 Y115.028 E19.03759
G1 X124.777 Y115.761 E19.05007
G1 X124.621 Y116.219 E19.05811
G1 X124.327 Y116.861 E19.06986
G1 X123.82 Y117.6 E19.08476
G1 X123.266 Y118.161 E19.09787
G1 X122.706 Y118.597 E19.10968
G1 X122.053 Y118.986 E19.12232
G1 X121.187 Y119.295 E19.13761
G1 X120.475 Y119.437 E19.14968
G1 X119.953 Y119.488 E19.1584
G1 X119.354 Y119.497 E19.16837
G1 X112.729 Y119.496 E19.27854
G1 X111.875 Y119.48 E19.29274
G1 X110.964 Y119.357 E19.30803
G1 X110.22 Y119.098 E19.32113
G1 X109.636 Y118.818 E19.3319
G1 X109.15 Y118.494 E19.34162
G1 X108.512 Y117.948 E19.35558
G1 X107.976 Y117.328 E19.36921
G1 X107.532 Y116.584 E19.38362
G1 X107.231 Y115.825 E19.3972
G1 X107.072 Y115.018 E19.41088
G1 X107.012 Y114.449 E19.42039
G1 X107.003 Y113.854 E19.43029
G1 X107.004 Y108.197 E19.52436
G1 X107.017 Y107.486 E19.53619
G1 X107.069 Y106.931 E19.54546
G1 X107.258 Y106.112 E19.55944
G1 X107.427 Y105.635 E19.56785
G1 X107.782 Y104.983 E19.5802
G1 X108.201 Y104.396 E19.59219
G1 X108.731 Y103.842 E19.60494
G1 F1500 E13.10494
;MESH:cap.stl
G0 F5400 X110.357 Y105.793
G0 X111.037 Y106.613
G0 X119.823 Y115.398
G0 X119.854 Y115.697
;TYPE:WALL-INNER
G1 F1500 E19.60494
G1 F2700 X120.266 Y115.615 E19.61193
G1 X120.523 Y115.491 E19.61667
G1 X120.848 Y115.222 E19.62369
G1 X121.11 Y114.779 E19.63225
G1 X121.196 Y114.366 E19.63927
G1 X121.196 Y107.646 E19.75102
G1 X121.115 Y107.234 E19.758
G1 X120.991 Y106.977 E19.76275
G1 X120.722 Y106.653 E19.76975
G1 X120.279 Y106.39 E19.77832
G1 X119.866 Y106.305 E19.78533
G1 X112.146 Y106.304 E19.91371
G1 X111.734 Y106.385 E19.9207
G1 X111.477 Y106.509 E19.92544
G1 X111.153 Y106.778 E19.93245
G1 X110.89 Y107.221 E19.94101
G1 X110.805 Y107.634 E19.94803
G1 X110.803 Y114.354 E20.05978
G1 X110.885 Y114.766 E20.06677
G1 X111.009 Y115.023 E20.07151
G1 X111.278 Y115.347 E20.07851
G1 X111.721 Y115.61 E20.08708
G1 X112.134 Y115.696 E20.0941
G1 X119.854 Y115.697 E20.22248
G0 F5400 X119.893 Y116.097
;TYPE:WALL-OUTER
G1 F1800 X120.394 Y115.997 E20.23098
G1 X120.741 Y115.83 E20.23738
G1 X121.138 Y115.501 E20.24596
G1 X121.316 Y115.268 E20.25083
G1 X121.492 Y114.91 E20.25747
G1 X121.596 Y114.407 E20.26601
G1 X121.596 Y107.607 E20.37909
G1 X121.497 Y107.106 E20.38759
G1 X121.33 Y106.759 E20.39399
G1 X121.001 Y106.362 E20.40256
G1 X120.769 Y106.185 E20.40742
G1 X120.41 Y106.008 E20.41407
G1 X119.907 Y105.905 E20.42261
G1 X112.107 Y105.904 E20.55233
G1 X111.606 Y106.003 E20.56082
G1 X111.259 Y106.17 E20.56722
G1 X110.862 Y106.499 E20.5758
G1 X110.685 Y106.731 E20.58065
G1 X110.508 Y107.09 E20.58731
G1 X110.405 Y107.593 E20.59585
G1 X110.403 Y114.393 E20.70893
G1 X110.503 Y114.894 E20.71743
G1 X110.67 Y115.241 E20.72383
G1 X110.999 Y115.638 E20.7324
G1 X111.231 Y115.815 E20.73726
G1 X111.59 Y115.992 E20.74391
G1 X112.093 Y116.096 E20.75246
G1 X119.893 Y116.097 E20.88217
G0 F5400 X120.089 Y116.058
G0 X119.817 Y115.317
;TYPE:SKIN
G1 F1800 X112.172 Y115.316 E21.00931
G1 X111.857 Y115.249 E21.01466
G1 X111.537 Y115.062 E21.02083
G1 X111.333 Y114.815 E21.02615
G1 X111.249 Y114.64 E21.02938
G1 X111.183 Y114.317 E21.03486
G1 X111.186 Y107.672 E21.14537
G1 X111.251 Y107.354 E21.15077
G1 X111.438 Y107.037 E21.15689
G1 X111.686 Y106.832 E21.16224
G1 X111.859 Y106.748 E21.16544
G1 X112.183 Y106.685 E21.17093
G1 X119.828 Y106.686 E21.29806
G1 X120.146 Y106.75 E21.30346
G1 X120.463 Y106.938 E21.30959
G1 X120.668 Y107.186 E21.31494
G1 X120.752 Y107.359 E21.31814
G1 X120.816 Y107.683 E21.32363
G1 X120.816 Y114.328 E21.43414
G1 X120.749 Y114.643 E21.43949
G1 X120.562 Y114.963 E21.44566
G1 X120.315 Y115.167 E21.45098
G1 X120.14 Y115.251 E21.45421
G1 X119.817 Y115.317 E21.45969
G0 F5400 X120.615 Y114.144
G1 F1800 X119.642 Y115.116 E21.48257
G0 F5400 X119.076 Y115.116
G1 F1800 X120.615 Y113.578 E21.51875
