;FLAVOR:Marlin
;TIME:1032
;Filament used: 0.507642m
;Layer height: 0.1
;MINX:83.3
;MINY:99.46
;MINZ:0.2
;MAXX:148.7
;MAXY:122.54
;MAXZ:4
;TARGET_MACHINE.NAME:Unknown
;Generated with Cura_SteamEngine 5.6.0
M140 S70
M105
M190 S70
M104 S230
M105
M109 S230
M82 ;absolute extrusion mode
G28 ;Home
G1 Z15.0 F6000 ;Move the platform down 15mm
;Prime the extruder
G92 E0
G1 F200 E3
G92 E0
G92 E0
q
G92 E0
G1 F1500 E-6.5
;LAYER_COUNT:39
;LAYER:0
M107
G0 F3600 X85.522 Y100.595 Z0.2
;TYPE:SKIRT
G1 F1500 E0
G1 F1800 X86.29 Y100.132 E0.02983
G1 X86.72 Y99.927 E0.04567
G1 X87.44 Y99.677 E0.07102
G1 X87.882 Y99.574 E0.08612
G1 X88.629 Y99.481 E0.11115
G1 X89.716 Y99.46 E0.14731
G1 X142.594 Y99.46 E1.90604
G1 X143.348 Y99.474 E1.93112
G1 X144.135 Y99.562 E1.95746
G1 X145.046 Y99.826 E1.98901
G1 X145.834 Y100.208 E2.01814
G1 X146.322 Y100.499 E2.03703
G1 X146.893 Y100.969 E2.06163
G1 X147.56 Y101.677 E2.09398
G1 X148.047 Y102.486 E2.12539
G1 X148.233 Y102.88 E2.13988
G1 X148.483 Y103.598 E2.16517
G1 X148.586 Y104.039 E2.18023
G1 X148.679 Y104.788 E2.20533
G1 X148.7 Y105.876 E2.24153
G1 X148.7 Y116.426 E2.59242
G1 X148.688 Y117.146 E2.61637
G1 X148.607 Y117.925 E2.64242
G1 X148.36 Y118.829 E2.67359
G1 X147.951 Y119.675 E2.70485
G1 X147.66 Y120.164 E2.72377
G1 X147.153 Y120.774 E2.75015
G1 X146.478 Y121.405 E2.78089
G1 X145.71 Y121.868 E2.81071
G1 X145.28 Y122.073 E2.82656
G1 X144.56 Y122.323 E2.85191
G1 X144.118 Y122.426 E2.867
G1 X143.371 Y122.519 E2.89204
G1 X142.284 Y122.54 E2.9282
G1 X89.406 Y122.54 E4.68693
G1 X88.652 Y122.526 E4.71201
G1 X87.865 Y122.438 E4.73835
G1 X86.954 Y122.174 E4.7699
G1 X86.163 Y121.79 E4.79914
G1 X85.675 Y121.499 E4.81804
G1 X85.106 Y121.03 E4.84256
G1 X84.434 Y120.316 E4.87518
G1 X83.955 Y119.516 E4.90619
G1 X83.753 Y119.084 E4.92205
G1 X83.517 Y118.402 E4.94605
G1 X83.414 Y117.961 E4.96112
G1 X83.321 Y117.211 E4.98625
G1 X83.3 Y116.108 E5.02294
G1 X83.3 Y105.574 E5.37331
G1 X83.312 Y104.854 E5.39726
G1 X83.393 Y104.076 E5.42327
G1 X83.64 Y103.169 E5.45454
G1 X84.053 Y102.317 E5.48603
G1 X84.345 Y101.83 E5.50492
G1 X84.846 Y101.227 E5.53099
G1 X85.522 Y100.595 E5.56177
G0 F3600 X85.761 Y100.919
G1 F1800 X86.497 Y100.475 E5.59036
G1 X86.891 Y100.289 E5.60485
G1 X87.531 Y100.067 E5.62738
G1 X87.973 Y99.964 E5.64248
G1 X88.637 Y99.881 E5.66473
G1 X89.724 Y99.86 E5.70089
G1 X142.587 Y99.86 E7.45913
G1 X143.304 Y99.872 E7.48298
G1 X144.091 Y99.96 E7.50931
G1 X144.872 Y100.186 E7.53636
G1 X145.632 Y100.553 E7.56443
G1 X146.068 Y100.808 E7.58123
G1 X146.639 Y101.278 E7.60582
G1 X147.24 Y101.92 E7.63507
G1 X147.685 Y102.657 E7.66371
G1 X147.871 Y103.051 E7.6782
G1 X148.093 Y103.689 E7.70067
G1 X148.196 Y104.13 E7.71573
G1 X148.279 Y104.796 E7.73805
G1 X148.3 Y105.884 E7.77425
G1 X148.3 Y116.42 E8.12468
G1 X148.29 Y117.105 E8.14746
G1 X148.209 Y117.884 E8.17351
G1 X147.985 Y118.687 E8.20124
G1 X147.606 Y119.473 E8.23026
G1 X147.351 Y119.91 E8.24709
G1 X146.88 Y120.482 E8.27173
G1 X146.239 Y121.081 E8.30091
G1 X145.503 Y121.525 E8.3295
G1 X145.109 Y121.711 E8.34399
G1 X144.469 Y121.933 E8.36652
G1 X144.027 Y122.036 E8.38162
G1 X143.363 Y122.119 E8.40388
G1 X142.276 Y122.14 E8.44004
G1 X89.413 Y122.14 E10.19827
G1 X88.696 Y122.128 E10.22212
G1 X87.909 Y122.04 E10.24846
G1 X87.128 Y121.814 E10.2755
G1 X86.365 Y121.445 E10.30369
G1 X85.929 Y121.19 E10.32049
G1 X85.36 Y120.721 E10.34501
G1 X84.756 Y120.075 E10.37443
G1 X84.317 Y119.345 E10.40276
G1 X84.131 Y118.952 E10.41722
G1 X83.907 Y118.311 E10.4398
G1 X83.804 Y117.87 E10.45487
G1 X83.721 Y117.203 E10.47722
G1 X83.7 Y116.1 E10.51392
G1 X83.7 Y105.58 E10.86381
G1 X83.71 Y104.895 E10.8866
G1 X83.791 Y104.117 E10.91261
G1 X84.015 Y103.311 E10.94044
G1 X84.398 Y102.52 E10.96967
G1 X84.654 Y102.084 E10.98648
G1 X85.119 Y101.519 E11.01082
G1 X85.761 Y100.919 E11.04005
G1 F1500 E4.54005
;MESH:front-v2.stl
G0 F3600 X88.561 Y102.419
G0 X88.786 Y103.479
G0 X111.571 Y115.427
G0 X120.412 Y115.9
G0 X120.413 Y115.436
;TYPE:WALL-INNER
G1 F1500 E11.04005
G1 F1800 X120.23 Y115.556 E11.04733
G1 X120.076 Y115.601 E11.05266
G1 X111.999 Y115.6 E11.32131
G1 X111.768 Y115.554 E11.32914
G1 X111.585 Y115.434 E11.33642
G1 X111.469 Y115.282 E11.34278
G1 X111.399 Y115.093 E11.34948
G1 X111.401 Y106.903 E11.62188
G1 X111.471 Y106.716 E11.62852
G1 X111.587 Y106.564 E11.63488
G1 X111.77 Y106.444 E11.64216
G1 X111.924 Y106.399 E11.6475
G1 X120.001 Y106.399 E11.91614
G1 X120.232 Y106.444 E11.92397
G1 X120.415 Y106.564 E11.93125
G1 X120.531 Y106.716 E11.9376
G1 X120.601 Y106.905 E11.94431
G1 X120.599 Y115.097 E12.21678
G1 X120.529 Y115.284 E12.22342
G1 X120.413 Y115.436 E12.22978
G0 F3600 X120.412 Y115.9
G0 X143.161 Y118.041
G0 X143.195 Y118.34
G1 F1800 X143.532 Y118.268 E12.24124
G1 X143.797 Y118.148 E12.25091
G1 X144.036 Y117.975 E12.26073
G1 X144.22 Y117.773 E12.26981
G1 X144.43 Y117.36 E12.28522
G1 X144.499 Y117.026 E12.29657
G1 X144.499 Y104.965 E12.69772
G1 X144.428 Y104.628 E12.70917
G1 X144.309 Y104.363 E12.71883
G1 X144.135 Y104.124 E12.72867
G1 X143.933 Y103.94 E12.73776
G1 X143.52 Y103.73 E12.75317
G1 X143.186 Y103.662 E12.7645
G1 X88.805 Y103.661 E14.57322
G1 X88.468 Y103.732 E14.58468
G1 X88.203 Y103.851 E14.59434
G1 X87.964 Y104.025 E14.60417
G1 X87.78 Y104.227 E14.61326
G1 X87.57 Y104.64 E14.62867
G1 X87.502 Y104.974 E14.64001
G1 X87.5 Y117.035 E15.04116
G1 X87.572 Y117.372 E15.05262
G1 X87.692 Y117.637 E15.06229
G1 X87.865 Y117.876 E15.07211
G1 X88.067 Y118.06 E15.08119
G1 X88.48 Y118.27 E15.09661
G1 X88.814 Y118.339 E15.10795
G1 X143.195 Y118.34 E16.91667
G0 F3600 X143.237 Y118.74
;TYPE:WALL-OUTER
G1 F1800 X143.657 Y118.65 E16.93095
G1 X143.999 Y118.496 E16.94343
G1 X144.304 Y118.275 E16.95596
G1 X144.552 Y118.003 E16.9682
G1 X144.811 Y117.493 E16.98722
G1 X144.899 Y117.066 E17.00172
G1 X144.899 Y104.923 E17.4056
G1 X144.81 Y104.503 E17.41988
G1 X144.657 Y104.161 E17.43234
G1 X144.435 Y103.856 E17.44489
G1 X144.163 Y103.608 E17.45713
G1 X143.653 Y103.349 E17.47616
G1 X143.226 Y103.262 E17.49065
G1 X88.763 Y103.261 E19.3021
G1 X88.343 Y103.35 E19.31638
G1 X88.001 Y103.503 E19.32884
G1 X87.696 Y103.725 E19.34139
G1 X87.448 Y103.997 E19.35363
G1 X87.189 Y104.507 E19.37265
G1 X87.102 Y104.934 E19.38715
G1 X87.1 Y117.077 E19.79103
G1 X87.19 Y117.497 E19.80531
G1 X87.344 Y117.839 E19.81779
G1 X87.565 Y118.144 E19.83031
G1 X87.837 Y118.392 E19.84256
G1 X88.347 Y118.651 E19.86158
G1 X88.774 Y118.739 E19.87608
G1 X143.237 Y118.74 E21.68753
G0 F3600 X143.432 Y118.699
G0 X143.287 Y118.013
G0 X120.033 Y115.9
G0 X120.034 Y115.199
G1 F1800 X111.999 Y115.2 E21.95477
G1 X111.861 Y115.144 E21.95973
G1 X111.803 Y115.043 E21.9636
G1 X111.805 Y106.954 E22.23264
G1 X111.863 Y106.854 E22.23649
G1 X111.966 Y106.801 E22.24034
G1 X120.055 Y106.799 E22.50938
G1 X120.197 Y106.955 E22.5164
G1 X120.195 Y115.046 E22.78551
G1 X120.137 Y115.146 E22.78935
G1 X120.034 Y115.199 E22.7932
G0 F3600 X119.834 Y115.199
G0 X119.833 Y115.9
G0 X143.156 Y117.96
;TYPE:SKIN
G1 F1800 X88.853 Y117.958 E24.59933
G1 X88.605 Y117.907 E24.60775
G1 X88.297 Y117.75 E24.61925
G1 X88.02 Y117.436 E24.63317
G1 X87.88 Y116.996 E24.64853
G1 X87.883 Y105.013 E25.04709
G1 X87.933 Y104.765 E25.0555
G1 X88.089 Y104.457 E25.06699
G1 X88.406 Y104.176 E25.08107
G1 X88.844 Y104.042 E25.09631
G1 X143.147 Y104.043 E26.90243
G1 X143.395 Y104.093 E26.91085
G1 X143.703 Y104.249 E26.92233
G1 X143.984 Y104.566 E26.93642
G1 X144.119 Y105.004 E26.95167
G1 X144.118 Y116.987 E27.35022
G1 X144.067 Y117.235 E27.35864
G1 X143.91 Y117.543 E27.37014
G1 X143.596 Y117.82 E27.38407
G1 X143.156 Y117.96 E27.39943
G0 F3600 X120.647 Y115.9
G0 X120.648 Y115.732
G1 F1800 X120.848 Y115.49 E27.40987
G1 X120.979 Y115.164 E27.42155
G1 X120.981 Y106.837 E27.69851
G1 X120.85 Y106.51 E27.71023
G1 X120.699 Y106.312 E27.71851
G1 X120.412 Y106.112 E27.73014
G1 X120.038 Y106.022 E27.74294
G1 X111.867 Y106.021 E28.01471
G1 X111.647 Y106.086 E28.02234
G1 X111.352 Y106.268 E28.03386
G1 X111.152 Y106.51 E28.04431
G1 X111.021 Y106.836 E28.05599
G1 X111.019 Y115.12 E28.33152
G1 X111.122 Y115.435 E28.34254
G1 X111.301 Y115.685 E28.35277
G1 X111.588 Y115.886 E28.36442
G1 X111.962 Y115.977 E28.37722
G1 X120.133 Y115.978 E28.64899
G1 X120.353 Y115.914 E28.65661
G1 X120.648 Y115.732 E28.66814
G0 F3600 X120.647 Y115.9
G0 X143.313 Y104.281
G1 F1800 X143.858 Y104.826 E28.69378
G0 F3600 X143.918 Y105.451
G1 F1800 X142.709 Y104.243 E28.75062
G0 F3600 X142.144 Y104.243
G1 F1800 X143.918 Y106.017 E28.83407
G0 F3600 X143.918 Y106.582
G1 F1800 X141.578 Y104.243 E28.94411
G0 F3600 X141.012 Y104.243
G1 F1800 X143.918 Y107.148 E29.08077
G0 F3600 X143.918 Y107.714
G1 F1800 X140.446 Y104.243 E29.24406
G0 F3600 X139.881 Y104.243
G1 F1800 X143.918 Y108.279 E29.43393
G0 F3600 X143.918 Y108.845
G1 F1800 X139.315 Y104.243 E29.65042
G0 F3600 X138.749 Y104.243
G1 F1800 X143.918 Y109.411 E29.89353
G0 F3600 X143.918 Y109.977
G1 F1800 X138.184 Y104.243 E30.16324
G0 F3600 X137.618 Y104.243
G1 F1800 X143.918 Y110.542 E30.45954
G0 F3600 X143.918 Y111.108
G1 F1800 X137.052 Y104.243 E30.78248
G0 F3600 X136.487 Y104.243
G1 F1800 X143.918 Y111.674 E31.13201
G0 F3600 X143.918 Y112.239
G1 F1800 X135.921 Y104.243 E31.50814
G0 F3600 X135.355 Y104.243
G1 F1800 X143.918 Y112.805 E31.91089
G0 F3600 X143.918 Y113.371
G1 F1800 X134.79 Y104.243 E32.34025
G0 F3600 X134.224 Y104.243
G1 F1800 X143.918 Y113.936 E32.7962
G0 F3600 X143.918 Y114.502
G1 F1800 X133.658 Y104.243 E33.27877
G0 F3600 X133.093 Y104.243
G1 F1800 X143.918 Y115.068 E33.78795
G0 F3600 X143.918 Y115.633
G1 F1800 X132.527 Y104.243 E34.32372
G0 F3600 X131.961 Y104.243
G1 F1800 X143.918 Y116.199 E34.88612
G0 F3600 X143.918 Y116.765
G1 F1800 X131.395 Y104.243 E35.47514
G0 F3600 X130.83 Y104.243
G1 F1800 X143.834 Y117.247 E36.08681
G0 F3600 X143.583 Y117.562
G1 F1800 X130.264 Y104.243 E36.71329
G0 F3600 X129.698 Y104.243
G1 F1800 X143.196 Y117.74 E37.34817
G0 F3600 X142.649 Y117.759
G1 F1800 X129.133 Y104.243 E37.98393
G0 F3600 X128.567 Y104.243
G1 F1800 X142.083 Y117.759 E38.61968
G0 F3600 X141.518 Y117.759
G1 F1800 X128.001 Y104.243 E39.25545
G0 F3600 X127.436 Y104.243
G1 F1800 X140.952 Y117.759 E39.8912
G0 F3600 X140.386 Y117.759
G1 F1800 X126.87 Y104.243 E40.52695
G0 F3600 X126.304 Y104.243
G1 F1800 X139.821 Y117.759 E41.16273
G0 F3600 X139.255 Y117.759
G1 F1800 X125.739 Y104.243 E41.79848
G0 F3600 X125.173 Y104.243
G1 F1800 X138.689 Y117.759 E42.43423
G0 F3600 X138.124 Y117.759
G1 F1800 X124.607 Y104.243 E43.07001
G0 F3600 X124.042 Y104.243
G1 F1800 X137.558 Y117.759 E43.70576
G0 F3600 X136.992 Y117.759
G1 F1800 X123.476 Y104.243 E44.34151
G0 F3600 X122.91 Y104.243
G1 F1800 X136.427 Y117.759 E44.97728
G0 F3600 X135.861 Y117.759
G1 F1800 X122.345 Y104.243 E45.61303
G0 F3600 X121.779 Y104.243
G1 F1800 X135.295 Y117.759 E46.24878
G0 F3600 X134.73 Y117.759
G1 F1800 X121.213 Y104.243 E46.88456
G0 F3600 X120.647 Y104.243
G1 F1800 X134.164 Y117.759 E47.52033
G0 F3600 X133.598 Y117.759
G1 F1800 X120.082 Y104.243 E48.15609
G0 F3600 X119.516 Y104.243
G1 F1800 X133.032 Y117.759 E48.79184
G0 F3600 X132.467 Y117.759
G1 F1800 X118.95 Y104.243 E49.42761
G0 F3600 X118.385 Y104.243
G1 F1800 X119.96 Y105.818 E49.50169
G0 F3600 X119.394 Y105.818
G1 F1800 X117.819 Y104.243 E49.57578
G0 F3600 X117.253 Y104.243
G1 F1800 X118.83 Y105.819 E49.64993
G0 F3600 X118.264 Y105.819
G1 F1800 X116.688 Y104.243 E49.72406
G0 F3600 X116.122 Y104.243
G1 F1800 X117.698 Y105.819 E49.79819
G0 F3600 X117.133 Y105.819
G1 F1800 X115.556 Y104.242 E49.87237
G0 F3600 X114.99 Y104.242
G1 F1800 X116.567 Y105.819 E49.94655
G0 F3600 X116.002 Y105.82
G1 F1800 X114.424 Y104.242 E50.02077
G0 F3600 X113.859 Y104.242
G1 F1800 X115.437 Y105.82 E50.09499
G0 F3600 X114.872 Y105.821
G1 F1800 X113.293 Y104.242 E50.16927
G0 F3600 X112.727 Y104.242
G1 F1800 X114.306 Y105.821 E50.24354
G0 F3600 X113.741 Y105.822
G1 F1800 X112.161 Y104.242 E50.31786
G0 F3600 X111.596 Y104.242
G1 F1800 X113.175 Y105.822 E50.39215
G0 F3600 X112.61 Y105.822
G1 F1800 X111.03 Y104.242 E50.46647
G0 F3600 X110.464 Y104.242
G1 F1800 X112.045 Y105.822 E50.54081
G0 F3600 X111.565 Y105.908
G1 F1800 X109.899 Y104.242 E50.61917
G0 F3600 X109.333 Y104.242
G1 F1800 X111.218 Y106.127 E50.70784
G0 F3600 X110.972 Y106.447
G1 F1800 X108.767 Y104.242 E50.81156
G0 F3600 X108.202 Y104.242
G1 F1800 X110.824 Y106.865 E50.93491
G0 F3600 X110.82 Y107.426
G1 F1800 X107.636 Y104.242 E51.08468
G0 F3600 X107.07 Y104.242
G1 F1800 X110.82 Y107.992 E51.26106
G0 F3600 X110.82 Y108.557
G1 F1800 X106.505 Y104.242 E51.46403
G0 F3600 X105.939 Y104.242
G1 F1800 X110.82 Y109.123 E51.69362
G0 F3600 X110.819 Y109.688
G1 F1800 X105.373 Y104.242 E51.94978
G0 F3600 X104.808 Y104.242
G1 F1800 X110.819 Y110.254 E52.23254
G0 F3600 X110.819 Y110.819
G1 F1800 X104.242 Y104.242 E52.5419
G0 F3600 X103.676 Y104.242
G1 F1800 X110.819 Y111.385 E52.87789
G0 F3600 X110.819 Y111.951
G1 F1800 X103.111 Y104.242 E53.24047
G0 F3600 X102.545 Y104.242
G1 F1800 X110.819 Y112.516 E53.62966
G0 F3600 X110.819 Y113.081
G1 F1800 X101.979 Y104.242 E54.04544
G0 F3600 X101.413 Y104.242
G1 F1800 X110.819 Y113.647 E54.48784
G0 F3600 X110.819 Y114.213
G1 F1800 X100.848 Y104.242 E54.95685
G0 F3600 X100.282 Y104.242
G1 F1800 X110.819 Y114.778 E55.45245
G0 F3600 X110.916 Y115.442
G1 F1800 X99.716 Y104.242 E55.97927
G0 F3600 X99.151 Y104.242
G1 F1800 X112.666 Y117.758 E56.615
G0 F3600 X112.101 Y117.758
G1 F1800 X98.585 Y104.242 E57.25075
G0 F3600 X98.019 Y104.242
G1 F1800 X111.535 Y117.758 E57.8865
G0 F3600 X110.969 Y117.758
G1 F1800 X97.454 Y104.242 E58.52223
G0 F3600 X96.888 Y104.242
G1 F1800 X110.404 Y117.758 E59.15798
G0 F3600 X109.838 Y117.758
G1 F1800 X96.322 Y104.242 E59.79373
G0 F3600 X95.757 Y104.242
G1 F1800 X109.272 Y117.758 E60.42946
G0 F3600 X108.707 Y117.758
G1 F1800 X95.191 Y104.242 E61.06521
G0 F3600 X94.625 Y104.242
G1 F1800 X108.141 Y117.758 E61.70096
G0 F3600 X107.575 Y117.758
G1 F1800 X94.06 Y104.242 E62.33669
G0 F3600 X93.494 Y104.242
G1 F1800 X107.01 Y117.758 E62.97244
G0 F3600 X106.444 Y117.758
G1 F1800 X92.928 Y104.242 E63.60819
G0 F3600 X92.362 Y104.242
G1 F1800 X105.878 Y117.758 E64.24394
G0 F3600 X105.312 Y117.758
G1 F1800 X91.797 Y104.242 E64.87967
G0 F3600 X91.231 Y104.242
G1 F1800 X104.747 Y117.758 E65.51542
G0 F3600 X104.181 Y117.758
G1 F1800 X90.665 Y104.242 E66.15117
G0 F3600 X90.1 Y104.242
G1 F1800 X103.615 Y117.758 E66.7869
G0 F3600 X103.05 Y117.758
G1 F1800 X89.534 Y104.242 E67.42265
G0 F3600 X88.968 Y104.242
G1 F1800 X102.484 Y117.758 E68.0584
G0 F3600 X101.918 Y117.757
G1 F1800 X88.511 Y104.35 E68.68902
G0 F3600 X88.225 Y104.629
G1 F1800 X101.352 Y117.757 E69.3065
G0 F3600 X100.786 Y117.757
G1 F1800 X88.082 Y105.052 E69.90408
G0 F3600 X88.082 Y105.618
G1 F1800 X100.221 Y117.757 E70.47506
G0 F3600 X99.655 Y117.757
G1 F1800 X88.082 Y106.184 E71.01942
G0 F3600 X88.082 Y106.749
G1 F1800 X99.089 Y117.757 E71.53718
G0 F3600 X98.524 Y117.757
G1 F1800 X88.082 Y107.315 E72.02834
G0 F3600 X88.082 Y107.881
G1 F1800 X97.958 Y117.757 E72.49288
G0 F3600 X97.392 Y117.757
G1 F1800 X88.081 Y108.446 E72.93084
G0 F3600 X88.081 Y109.011
G1 F1800 X96.826 Y117.757 E73.3422
G0 F3600 X96.261 Y117.757
G1 F1800 X88.081 Y109.577 E73.72696
G0 F3600 X88.081 Y110.143
G1 F1800 X95.695 Y117.757 E74.0851
G0 F3600 X95.129 Y117.757
G1 F1800 X88.081 Y110.708 E74.41664
G0 F3600 X88.08 Y111.273
G1 F1800 X94.564 Y117.757 E74.72163
G0 F3600 X93.998 Y117.757
G1 F1800 X88.08 Y111.839 E74.99999
G0 F3600 X88.08 Y112.405
G1 F1800 X93.432 Y117.757 E75.25173
G0 F3600 X92.867 Y117.757
G1 F1800 X88.08 Y112.97 E75.4769
G0 F3600 X88.08 Y113.536
G1 F1800 X92.301 Y117.757 E75.67544
G0 F3600 X91.735 Y117.757
G1 F1800 X88.08 Y114.101 E75.84739
G0 F3600 X88.08 Y114.667
G1 F1800 X91.17 Y117.757 E75.99273
G0 F3600 X90.604 Y117.757
G1 F1800 X88.08 Y115.232 E76.11148
G0 F3600 X88.08 Y115.798
G1 F1800 X90.038 Y117.757 E76.2036
G0 F3600 X89.473 Y117.757
G1 F1800 X88.08 Y116.364 E76.26912
G0 F3600 X88.08 Y116.93
G1 F1800 X88.907 Y117.757 E76.30802
G1 X88.977 Y117.827
G0 F3600 X111.544 Y116.07
G1 F1800 X113.232 Y117.758 E76.38742
G0 F3600 X113.798 Y117.758
G1 F1800 X112.219 Y116.179 E76.46169
G0 F3600 X112.785 Y116.179
